;FLAVOR:Marlin
;TIME:8027
;Filament used: 4.33772m
;Layer height: 0.2
;MINX:60.551
;MINY:70.301
;MINZ:0.2
;MAXX:174.45
;MAXY:164.699
;MAXZ:5
;TARGET_MACHINE.NAME:Creality Ender-3
;Generated with Cura_SteamEngine 5.9.0
M140 S50
M105
M190 S50
M104 S200
M105
M109 S200
M82 ;absolute extrusion mode
; Ender 3 Custom Start G-code
G92 E0 ; Reset Extruder
G28 ; Home all axes
G1 Z2.0 F3000 ; Move Z Axis up little to prevent scratching of Heat Bed
G1 X0.1 Y20 Z0.3 F5000.0 ; Move to start position
G1 X0.1 Y200.0 Z0.3 F1500.0 E15 ; Draw the first line
G1 X0.4 Y200.0 Z0.3 F5000.0 ; Move to side a little
G1 X0.4 Y20 Z0.3 F1500.0 E30 ; Draw the second line
G92 E0 ; Reset Extruder
G1 Z2.0 F3000 ; Move Z Axis up little to prevent scratching of Heat Bed
G1 X5 Y20 Z0.3 F5000.0 ; Move over to prevent blob squish
G92 E0
G92 E0
G1 F2700 E-5
;LAYER_COUNT:25
;LAYER:0
M107
G0 F6000 X69.05 Y112.94 Z0.2
;TYPE:SKIRT
G1 F2700 E0
G1 F1200 X66.533 Y112.914 E0.08372
G1 X65.802 Y112.782 E0.10843
G1 X65.263 Y112.564 E0.12776
G1 X64.55 Y112.083 E0.15637
G1 X63.884 Y111.466 E0.18657
G1 X63.329 Y110.49 E0.22391
G1 X63.05 Y109.395 E0.26149
G1 X63.086 Y103.533 E0.45647
G1 X63.218 Y102.802 E0.48117
G1 X63.437 Y102.261 E0.50059
G1 X63.957 Y101.5 E0.53124
G1 X64.534 Y100.885 E0.55929
G1 X65.504 Y100.333 E0.59641
G1 X66.604 Y100.05 E0.63419
G1 X69.05 Y100.05 E0.71554
G1 X69.049 Y95.699 E0.86026
G1 X64.999 Y95.694 E0.99496
G1 X63.83 Y95.434 E1.03479
G1 X62.468 Y94.745 E1.08556
G1 X61.249 Y93.402 E1.14588
G1 X60.716 Y92.11 E1.19237
G1 X60.551 Y91.395 E1.21678
G1 X60.605 Y74.563 E1.77661
G1 X60.797 Y73.492 E1.8128
G1 X61.6 Y72.18 E1.86396
G1 X61.959 Y71.736 E1.88296
G1 X63.066 Y70.918 E1.92874
G1 X63.613 Y70.64 E1.94914
G1 X64.965 Y70.301 E1.9955
G1 X80.31 Y70.316 E2.50588
G1 X81.475 Y70.468 E2.54496
G1 X83.026 Y71.257 E2.60283
G1 X84.089 Y72.416 E2.65514
G1 X84.714 Y73.515 E2.69719
G1 X84.904 Y74.799 E2.74036
G1 X99.018 Y74.806 E3.2098
G1 X100.16 Y75.059 E3.2487
G1 X101.525 Y75.757 E3.29969
G1 X102.589 Y76.916 E3.35202
G1 X103.214 Y78.015 E3.39407
G1 X103.404 Y79.299 E3.43724
G1 X118.518 Y79.306 E3.93994
G1 X119.66 Y79.559 E3.97884
G1 X121.025 Y80.257 E4.02983
G1 X122.085 Y81.412 E4.08197
G1 X122.71 Y82.512 E4.12405
G1 X122.914 Y83.748 E4.16572
G1 X122.948 Y97.924 E4.63722
G1 X143.09 Y97.924 E5.30714
G1 X143.105 Y97.563 E5.31916
G1 X143.297 Y96.492 E5.35535
G1 X144.1 Y95.18 E5.40651
G1 X144.459 Y94.736 E5.4255
G1 X145.566 Y93.918 E5.47128
G1 X146.113 Y93.64 E5.49169
G1 X147.465 Y93.301 E5.53805
G1 X164.016 Y93.306 E6.08854
G1 X165.158 Y93.559 E6.12744
G1 X166.525 Y94.257 E6.17849
G1 X167.587 Y95.414 E6.23073
G1 X168.211 Y96.512 E6.27273
G1 X168.424 Y97.872 E6.31852
G1 X168.438 Y100.059 E6.39126
G1 X170.967 Y100.086 E6.47538
G1 X171.698 Y100.218 E6.50008
G1 X172.237 Y100.436 E6.51942
G1 X172.95 Y100.917 E6.54803
G1 X173.616 Y101.534 E6.57823
G1 X174.171 Y102.51 E6.61557
G1 X174.45 Y103.605 E6.65315
G1 X174.414 Y109.467 E6.84813
G1 X174.282 Y110.198 E6.87283
G1 X174.063 Y110.739 E6.89224
G1 X173.543 Y111.5 E6.9229
G1 X172.966 Y112.115 E6.95095
G1 X171.996 Y112.667 E6.98807
G1 X170.896 Y112.95 E7.02585
G1 X168.45 Y112.95 E7.1072
G1 X168.45 Y137.06 E7.9091
G1 X170.967 Y137.086 E7.99282
G1 X171.698 Y137.218 E8.01753
G1 X172.237 Y137.436 E8.03687
G1 X172.95 Y137.917 E8.06547
G1 X173.616 Y138.534 E8.09567
G1 X174.171 Y139.51 E8.13301
G1 X174.45 Y140.605 E8.1706
G1 X174.414 Y146.467 E8.36557
G1 X174.282 Y147.198 E8.39028
G1 X174.063 Y147.739 E8.40969
G1 X173.543 Y148.5 E8.44035
G1 X172.966 Y149.115 E8.46839
G1 X171.996 Y149.667 E8.50551
G1 X170.896 Y149.95 E8.54329
G1 X168.425 Y149.95 E8.62548
G1 X168.395 Y151.437 E8.67495
G1 X168.212 Y152.452 E8.70925
G1 X167.379 Y153.913 E8.76519
G1 X166.321 Y154.845 E8.81208
G1 X165.122 Y155.488 E8.85733
G1 X163.856 Y155.677 E8.89991
G1 X149.907 Y155.7 E9.36385
G1 X149.895 Y155.937 E9.37175
G1 X149.712 Y156.952 E9.40605
G1 X148.879 Y158.413 E9.46199
G1 X147.821 Y159.345 E9.50888
G1 X146.622 Y159.988 E9.55413
G1 X145.356 Y160.177 E9.59671
G1 X131.407 Y160.2 E10.06065
G1 X131.395 Y160.437 E10.06855
G1 X131.212 Y161.452 E10.10285
G1 X130.379 Y162.913 E10.15879
G1 X129.321 Y163.845 E10.20568
G1 X128.122 Y164.488 E10.25093
G1 X126.856 Y164.677 E10.29351
G1 X111.506 Y164.699 E10.80405
G1 X110.091 Y164.385 E10.85226
G1 X108.589 Y163.431 E10.91144
G1 X107.538 Y162.009 E10.97025
G1 X107.051 Y160.537 E11.02182
G1 X107.051 Y160.201 E11.033
G1 X93.006 Y160.199 E11.50013
G1 X91.591 Y159.885 E11.54834
G1 X90.089 Y158.931 E11.60752
G1 X89.038 Y157.509 E11.66634
G1 X88.551 Y156.037 E11.7179
G1 X88.551 Y155.701 E11.72908
G1 X73.506 Y155.699 E12.22948
G1 X72.091 Y155.385 E12.27769
G1 X70.591 Y154.434 E12.33676
G1 X69.605 Y153.084 E12.39236
G1 X69.398 Y152.668 E12.40782
G1 X69.051 Y151.303 E12.45466
G1 X69.05 Y149.941 E12.49996
G1 X66.533 Y149.914 E12.58368
G1 X65.802 Y149.782 E12.60839
G1 X65.263 Y149.564 E12.62772
G1 X64.55 Y149.083 E12.65633
G1 X63.884 Y148.466 E12.68653
G1 X63.329 Y147.49 E12.72387
G1 X63.05 Y146.395 E12.76145
G1 X63.086 Y140.533 E12.95643
G1 X63.218 Y139.802 E12.98113
G1 X63.437 Y139.261 E13.00055
G1 X63.957 Y138.5 E13.0312
G1 X64.534 Y137.885 E13.05925
G1 X65.504 Y137.333 E13.09637
G1 X66.604 Y137.05 E13.13415
G1 X69.05 Y137.05 E13.2155
G1 X69.05 Y112.94 E14.01741
G0 F6000 X69.45 Y112.543
G1 F1200 X66.604 Y112.52 E14.11207
G1 X65.913 Y112.395 E14.13542
G1 X65.453 Y112.209 E14.15193
G1 X64.774 Y111.751 E14.17917
G1 X64.203 Y111.216 E14.20519
G1 X63.704 Y110.339 E14.23875
G1 X63.45 Y109.344 E14.27291
G1 X63.48 Y103.604 E14.46382
G1 X63.605 Y102.913 E14.48718
G1 X63.791 Y102.453 E14.50368
G1 X64.249 Y101.774 E14.53092
G1 X64.785 Y101.203 E14.55697
G1 X65.658 Y100.706 E14.59038
G1 X66.653 Y100.45 E14.62455
G1 X69.45 Y100.45 E14.71758
G1 X69.449 Y95.299 E14.88891
G1 X65.041 Y95.294 E15.03552
G1 X63.967 Y95.055 E15.07211
G1 X62.715 Y94.422 E15.11877
G1 X61.593 Y93.186 E15.17429
G1 X61.086 Y91.957 E15.21851
G1 X60.951 Y91.352 E15.23913
G1 X60.999 Y74.634 E15.79517
G1 X61.178 Y73.637 E15.82887
G1 X61.911 Y72.432 E15.87578
G1 X62.238 Y72.028 E15.89306
G1 X63.304 Y71.24 E15.93715
G1 X63.755 Y71.017 E15.95389
G1 X65.014 Y70.701 E15.99706
G1 X80.258 Y70.713 E16.50408
G1 X81.355 Y70.856 E16.54087
G1 X82.781 Y71.581 E16.59408
G1 X83.762 Y72.651 E16.64236
G1 X84.329 Y73.648 E16.68051
G1 X84.559 Y75.199 E16.73266
G1 X98.973 Y75.206 E17.21207
G1 X100.025 Y75.439 E17.24791
G1 X101.279 Y76.08 E17.29475
G1 X102.262 Y77.151 E17.3431
G1 X102.829 Y78.148 E17.38125
G1 X103.059 Y79.699 E17.4334
G1 X118.473 Y79.706 E17.94607
G1 X119.525 Y79.939 E17.98191
G1 X120.779 Y80.58 E18.02875
G1 X121.76 Y81.649 E18.07701
G1 X122.326 Y82.646 E18.11514
G1 X122.519 Y83.813 E18.15448
G1 X122.549 Y98.324 E18.63712
G1 X143.479 Y98.324 E19.33326
G1 X143.499 Y97.634 E19.35622
G1 X143.678 Y96.637 E19.38991
G1 X144.411 Y95.432 E19.43682
G1 X144.738 Y95.028 E19.4541
G1 X145.804 Y94.24 E19.49819
G1 X146.255 Y94.017 E19.51493
G1 X147.514 Y93.701 E19.5581
G1 X163.971 Y93.706 E20.10546
G1 X165.024 Y93.939 E20.14133
G1 X166.279 Y94.58 E20.1882
G1 X167.26 Y95.649 E20.23646
G1 X167.827 Y96.647 E20.27464
G1 X168.024 Y97.875 E20.316
G1 X168.041 Y100.456 E20.40185
G1 X170.896 Y100.48 E20.49681
G1 X171.587 Y100.605 E20.52017
G1 X172.047 Y100.791 E20.53667
G1 X172.726 Y101.249 E20.56391
G1 X173.297 Y101.784 E20.58994
G1 X173.796 Y102.661 E20.6235
G1 X174.05 Y103.656 E20.65765
G1 X174.02 Y109.396 E20.84857
G1 X173.895 Y110.087 E20.87192
G1 X173.709 Y110.547 E20.88843
G1 X173.251 Y111.226 E20.91567
G1 X172.715 Y111.797 E20.94172
G1 X171.842 Y112.294 E20.97513
G1 X170.847 Y112.55 E21.0093
G1 X168.05 Y112.55 E21.10233
G1 X168.05 Y137.457 E21.93074
G1 X170.896 Y137.48 E22.0254
G1 X171.587 Y137.605 E22.04875
G1 X172.047 Y137.791 E22.06526
G1 X172.726 Y138.249 E22.0925
G1 X173.297 Y138.784 E22.11852
G1 X173.796 Y139.661 E22.15208
G1 X174.05 Y140.656 E22.18624
G1 X174.02 Y146.396 E22.37716
G1 X173.895 Y147.087 E22.40051
G1 X173.709 Y147.547 E22.41701
G1 X173.251 Y148.226 E22.44426
G1 X172.715 Y148.797 E22.4703
G1 X171.842 Y149.294 E22.50371
G1 X170.847 Y149.55 E22.53789
G1 X168.031 Y149.55 E22.63155
G1 X168.001 Y151.366 E22.69196
G1 X167.83 Y152.313 E22.72396
G1 X167.064 Y153.657 E22.77541
G1 X166.092 Y154.514 E22.81851
G1 X164.994 Y155.102 E22.85994
G1 X163.797 Y155.281 E22.9002
G1 X149.519 Y155.301 E23.37509
G1 X149.501 Y155.866 E23.39389
G1 X149.33 Y156.813 E23.42589
G1 X148.564 Y158.157 E23.47735
G1 X147.592 Y159.014 E23.52045
G1 X146.494 Y159.602 E23.56187
G1 X145.297 Y159.781 E23.60213
G1 X131.019 Y159.801 E24.07702
G1 X131.001 Y160.366 E24.09582
G1 X130.83 Y161.313 E24.12782
G1 X130.064 Y162.657 E24.17928
G1 X129.092 Y163.514 E24.22238
G1 X127.994 Y164.102 E24.2638
G1 X126.797 Y164.281 E24.30406
G1 X111.552 Y164.299 E24.81111
G1 X110.245 Y164.009 E24.85564
G1 X108.867 Y163.134 E24.90993
G1 X107.898 Y161.822 E24.96418
G1 X107.451 Y160.471 E25.01151
G1 X107.45 Y159.801 E25.03379
G1 X93.052 Y159.799 E25.51267
G1 X91.745 Y159.509 E25.5572
G1 X90.367 Y158.634 E25.61149
G1 X89.398 Y157.322 E25.66574
G1 X88.951 Y155.971 E25.71307
G1 X88.95 Y155.301 E25.73535
G1 X73.552 Y155.299 E26.24749
G1 X72.245 Y155.009 E26.29202
G1 X70.869 Y154.136 E26.34622
G1 X69.963 Y152.905 E26.39706
G1 X69.775 Y152.528 E26.41107
G1 X69.451 Y151.252 E26.45486
G1 X69.45 Y149.544 E26.51167
G1 X66.604 Y149.52 E26.60633
G1 X65.913 Y149.395 E26.62968
G1 X65.453 Y149.209 E26.64619
G1 X64.774 Y148.751 E26.67343
G1 X64.203 Y148.216 E26.69945
G1 X63.704 Y147.339 E26.73301
G1 X63.45 Y146.344 E26.76717
G1 X63.48 Y140.604 E26.95808
G1 X63.605 Y139.913 E26.98144
G1 X63.791 Y139.453 E26.99794
G1 X64.249 Y138.774 E27.02518
G1 X64.785 Y138.203 E27.05123
G1 X65.658 Y137.706 E27.08464
G1 X66.653 Y137.45 E27.11881
G1 X69.45 Y137.45 E27.21184
G1 X69.45 Y112.543 E28.04025
G0 F6000 X69.85 Y112.146
G1 F1200 X66.675 Y112.126 E28.14586
G1 X66.024 Y112.008 E28.16786
G1 X65.643 Y111.854 E28.18153
G1 X64.998 Y111.419 E28.20741
G1 X64.521 Y110.965 E28.22931
G1 X64.079 Y110.188 E28.25904
G1 X63.85 Y109.293 E28.28977
G1 X63.874 Y103.675 E28.47662
G1 X63.992 Y103.024 E28.49863
G1 X64.146 Y102.643 E28.5123
G1 X64.581 Y101.998 E28.53817
G1 X65.035 Y101.521 E28.56008
G1 X65.812 Y101.079 E28.58981
G1 X66.702 Y100.85 E28.62037
G1 X69.85 Y100.85 E28.72508
G1 X69.849 Y94.9 E28.92297
G1 X65.083 Y94.894 E29.08149
G1 X64.104 Y94.676 E29.11485
G1 X62.962 Y94.099 E29.15741
G1 X61.937 Y92.97 E29.20812
G1 X61.456 Y91.804 E29.25008
G1 X61.351 Y91.31 E29.26687
G1 X61.393 Y74.705 E29.81916
G1 X61.559 Y73.781 E29.85038
G1 X62.253 Y72.64 E29.8948
G1 X62.516 Y72.321 E29.90855
G1 X63.542 Y71.562 E29.951
G1 X63.893 Y71.395 E29.96393
G1 X65.063 Y71.101 E30.00405
G1 X80.258 Y71.113 E30.50944
G1 X81.233 Y71.243 E30.54216
G1 X82.536 Y71.905 E30.59077
G1 X83.435 Y72.886 E30.63502
G1 X83.945 Y73.783 E30.66934
G1 X84.139 Y75.065 E30.71247
G1 X84.142 Y75.599 E30.73023
G1 X98.928 Y75.606 E31.22201
G1 X99.89 Y75.819 E31.25479
G1 X101.033 Y76.403 E31.29748
G1 X101.935 Y77.386 E31.34185
G1 X102.445 Y78.283 E31.37617
G1 X102.639 Y79.565 E31.41929
G1 X102.642 Y80.099 E31.43706
G1 X118.428 Y80.106 E31.9621
G1 X119.39 Y80.319 E31.99487
G1 X120.533 Y80.903 E32.03756
G1 X121.433 Y81.884 E32.08184
G1 X121.943 Y82.782 E32.11619
G1 X122.124 Y83.878 E32.15314
G1 X122.15 Y98.724 E32.64692
G1 X143.87 Y98.724 E33.36933
G1 X143.893 Y97.705 E33.40323
G1 X144.059 Y96.781 E33.43445
G1 X144.753 Y95.64 E33.47887
G1 X145.016 Y95.321 E33.49262
G1 X146.042 Y94.562 E33.53507
G1 X146.393 Y94.395 E33.548
G1 X147.563 Y94.101 E33.58812
G1 X163.925 Y94.106 E34.13232
G1 X164.89 Y94.32 E34.1652
G1 X166.033 Y94.903 E34.20788
G1 X166.933 Y95.884 E34.25215
G1 X167.443 Y96.782 E34.2865
G1 X167.624 Y97.878 E34.32345
G1 X167.644 Y100.854 E34.42243
G1 X170.825 Y100.874 E34.52824
G1 X171.476 Y100.992 E34.55024
G1 X171.857 Y101.146 E34.56391
G1 X172.502 Y101.581 E34.58979
G1 X172.979 Y102.035 E34.61169
G1 X173.421 Y102.812 E34.64142
G1 X173.65 Y103.707 E34.67215
G1 X173.626 Y109.325 E34.859
G1 X173.508 Y109.976 E34.88101
G1 X173.354 Y110.357 E34.89468
G1 X172.919 Y111.002 E34.92055
G1 X172.465 Y111.479 E34.94246
G1 X171.688 Y111.921 E34.97219
G1 X170.798 Y112.15 E35.00275
G1 X167.65 Y112.15 E35.10746
G1 X167.65 Y137.854 E35.96237
G1 X170.825 Y137.874 E36.06798
G1 X171.476 Y137.992 E36.08998
G1 X171.857 Y138.146 E36.10365
G1 X172.502 Y138.581 E36.12953
G1 X172.979 Y139.035 E36.15143
G1 X173.421 Y139.812 E36.18116
G1 X173.65 Y140.707 E36.21189
G1 X173.626 Y146.325 E36.39874
G1 X173.508 Y146.976 E36.42075
G1 X173.354 Y147.357 E36.43442
G1 X172.919 Y148.002 E36.46029
G1 X172.465 Y148.479 E36.4822
G1 X171.688 Y148.921 E36.51193
G1 X170.798 Y149.15 E36.54249
G1 X167.636 Y149.15 E36.64766
G1 X167.607 Y151.295 E36.71901
G1 X167.448 Y152.177 E36.74882
G1 X166.75 Y153.401 E36.79568
G1 X165.865 Y154.181 E36.83492
G1 X164.866 Y154.716 E36.87261
G1 X163.738 Y154.885 E36.91055
G1 X149.128 Y154.901 E37.39648
G1 X149.107 Y155.795 E37.42622
G1 X148.948 Y156.677 E37.45603
G1 X148.25 Y157.901 E37.5029
G1 X147.365 Y158.681 E37.54213
G1 X146.366 Y159.216 E37.57982
G1 X145.238 Y159.385 E37.61776
G1 X130.628 Y159.401 E38.10369
G1 X130.607 Y160.295 E38.13343
G1 X130.448 Y161.177 E38.16324
G1 X129.75 Y162.401 E38.21011
G1 X128.865 Y163.181 E38.24934
G1 X127.866 Y163.716 E38.28703
G1 X126.738 Y163.885 E38.32497
G1 X111.598 Y163.899 E38.82853
G1 X110.399 Y163.633 E38.86938
G1 X109.145 Y162.837 E38.91878
G1 X108.258 Y161.635 E38.96846
G1 X107.851 Y160.405 E39.01155
G1 X107.85 Y159.401 E39.04495
G1 X93.098 Y159.399 E39.5356
G1 X91.899 Y159.133 E39.57645
G1 X90.645 Y158.337 E39.62585
G1 X89.758 Y157.135 E39.67554
G1 X89.351 Y155.905 E39.71863
G1 X89.35 Y154.901 E39.75202
G1 X73.598 Y154.899 E40.27594
G1 X72.399 Y154.633 E40.31678
G1 X71.146 Y153.838 E40.36614
G1 X70.285 Y152.668 E40.41446
G1 X70.153 Y152.39 E40.42469
G1 X69.851 Y151.201 E40.46549
G1 X69.85 Y149.146 E40.53384
G1 X66.675 Y149.126 E40.63945
G1 X66.024 Y149.008 E40.66145
G1 X65.643 Y148.854 E40.67512
G1 X64.998 Y148.419 E40.70099
G1 X64.521 Y147.965 E40.7229
G1 X64.079 Y147.188 E40.75263
G1 X63.85 Y146.293 E40.78336
G1 X63.874 Y140.675 E40.97021
G1 X63.992 Y140.024 E40.99222
G1 X64.146 Y139.643 E41.00589
G1 X64.581 Y138.998 E41.03176
G1 X65.035 Y138.521 E41.05366
G1 X65.812 Y138.079 E41.0834
G1 X66.702 Y137.85 E41.11396
G1 X69.85 Y137.85 E41.21866
G1 X69.85 Y112.146 E42.07358
G0 F6000 X70.25 Y111.748
G1 F1200 X66.746 Y111.732 E42.19013
G1 X66.137 Y111.622 E42.21071
G1 X65.832 Y111.498 E42.22166
G1 X65.222 Y111.087 E42.24613
G1 X64.84 Y110.716 E42.26384
G1 X64.452 Y110.034 E42.28993
G1 X64.25 Y109.246 E42.31699
G1 X64.268 Y103.746 E42.49992
G1 X64.378 Y103.137 E42.52051
G1 X64.502 Y102.832 E42.53146
G1 X64.913 Y102.222 E42.55592
G1 X65.284 Y101.84 E42.57363
G1 X65.966 Y101.452 E42.59973
G1 X66.751 Y101.25 E42.62669
G1 X70.25 Y101.25 E42.74307
G1 X70.249 Y94.5 E42.96757
G1 X65.125 Y94.494 E43.138
G1 X64.24 Y94.297 E43.16815
G1 X63.209 Y93.776 E43.20657
G1 X62.28 Y92.753 E43.25254
G1 X61.826 Y91.652 E43.29215
G1 X61.751 Y91.271 E43.30506
G1 X61.787 Y74.776 E43.85369
G1 X61.94 Y73.925 E43.88245
G1 X62.595 Y72.848 E43.92437
G1 X62.795 Y72.612 E43.93466
G1 X63.747 Y71.907 E43.97406
G1 X64.029 Y71.773 E43.98445
G1 X65.112 Y71.501 E44.02159
G1 X80.205 Y71.51 E44.52358
G1 X81.116 Y71.631 E44.55415
G1 X82.289 Y72.228 E44.59792
G1 X83.108 Y73.121 E44.63822
G1 X83.561 Y73.918 E44.66872
G1 X83.739 Y75.068 E44.70742
G1 X83.745 Y75.999 E44.73839
G1 X98.881 Y76.006 E45.24181
G1 X99.756 Y76.2 E45.27162
G1 X100.787 Y76.726 E45.31012
G1 X101.608 Y77.621 E45.35051
G1 X102.061 Y78.418 E45.381
G1 X102.239 Y79.568 E45.41971
G1 X102.245 Y80.499 E45.45067
G1 X118.381 Y80.506 E45.98736
G1 X119.256 Y80.7 E46.01717
G1 X120.287 Y81.226 E46.05566
G1 X121.106 Y82.119 E46.09597
G1 X121.56 Y82.918 E46.12653
G1 X121.729 Y83.943 E46.16108
G1 X121.751 Y99.124 E46.66601
G1 X144.263 Y99.124 E47.41476
G1 X144.287 Y97.776 E47.4596
G1 X144.44 Y96.925 E47.48836
G1 X145.095 Y95.848 E47.53028
G1 X145.295 Y95.612 E47.54057
G1 X146.247 Y94.907 E47.57997
G1 X146.529 Y94.773 E47.59036
