;FLAVOR:Marlin
;TIME:7988
;Filament used: 4.33967m
;Layer height: 0.2
;MINX:60.55
;MINY:70.301
;MINZ:0.2
;MAXX:174.449
;MAXY:164.694
;MAXZ:5
;TARGET_MACHINE.NAME:Creality Ender-3
;Generated with Cura_SteamEngine 5.9.0
M140 S50
M105
M190 S50
M104 S200
M105
M109 S200
M82 ;absolute extrusion mode
; Ender 3 Custom Start G-code
G92 E0 ; Reset Extruder
G28 ; Home all axes
G1 Z2.0 F3000 ; Move Z Axis up little to prevent scratching of Heat Bed
G1 X0.1 Y20 Z0.3 F5000.0 ; Move to start position
G1 X0.1 Y200.0 Z0.3 F1500.0 E15 ; Draw the first line
G1 X0.4 Y200.0 Z0.3 F5000.0 ; Move to side a little
G1 X0.4 Y20 Z0.3 F1500.0 E30 ; Draw the second line
G92 E0 ; Reset Extruder
G1 Z2.0 F3000 ; Move Z Axis up little to prevent scratching of Heat Bed
G1 X5 Y20 Z0.3 F5000.0 ; Move over to prevent blob squish
G92 E0
G92 E0
G1 F2700 E-5
;LAYER_COUNT:25
;LAYER:0
M107
G0 F6000 X89.485 Y160.194 Z0.2
;TYPE:SKIRT
G1 F2700 E0
G1 F1200 X88.338 Y159.94 E0.03907
G1 X86.977 Y159.246 E0.08989
G1 X85.75 Y157.909 E0.15024
G1 X85.168 Y156.442 E0.20274
G1 X85.06 Y155.944 E0.21968
G1 X85.051 Y155.701 E0.22777
G1 X70.984 Y155.694 E0.69564
G1 X69.837 Y155.439 E0.73472
G1 X68.471 Y154.748 E0.78564
G1 X67.248 Y153.401 E0.84615
G1 X66.731 Y152.148 E0.89123
G1 X66.551 Y151.41 E0.9165
G1 X66.55 Y149.941 E0.96536
G1 X64.033 Y149.914 E1.04908
G1 X63.302 Y149.782 E1.07379
G1 X62.763 Y149.564 E1.09312
G1 X62.05 Y149.083 E1.12173
G1 X61.384 Y148.466 E1.15193
G1 X60.829 Y147.49 E1.18927
G1 X60.55 Y146.395 E1.22685
G1 X60.586 Y140.533 E1.42183
G1 X60.718 Y139.802 E1.44653
G1 X60.937 Y139.261 E1.46595
G1 X61.457 Y138.5 E1.4966
G1 X62.034 Y137.885 E1.52465
G1 X63.004 Y137.333 E1.56177
G1 X64.104 Y137.05 E1.59955
G1 X66.55 Y137.05 E1.6809
G1 X66.55 Y112.94 E2.4828
G1 X64.033 Y112.914 E2.56652
G1 X63.302 Y112.782 E2.59123
G1 X62.763 Y112.564 E2.61057
G1 X62.05 Y112.083 E2.63917
G1 X61.384 Y111.466 E2.66937
G1 X60.829 Y110.49 E2.70671
G1 X60.55 Y109.395 E2.7443
G1 X60.586 Y103.533 E2.93927
G1 X60.718 Y102.802 E2.96398
G1 X60.937 Y102.261 E2.98339
G1 X61.457 Y101.5 E3.01405
G1 X62.034 Y100.885 E3.04209
G1 X63.004 Y100.333 E3.07922
G1 X64.104 Y100.05 E3.11699
G1 X66.55 Y100.05 E3.19835
G1 X66.551 Y97.759 E3.27455
G1 X66.866 Y96.339 E3.32292
G1 X67.816 Y94.841 E3.38192
G1 X69.166 Y93.855 E3.43752
G1 X69.582 Y93.648 E3.45298
G1 X70.958 Y93.301 E3.50018
G1 X87.592 Y93.349 E4.05343
G1 X88.694 Y93.539 E4.09062
G1 X89.686 Y94.063 E4.12794
G1 X90.782 Y94.97 E4.17525
G1 X91.624 Y96.371 E4.22962
G1 X91.785 Y96.932 E4.24903
G1 X91.93 Y97.924 E4.28238
G1 X112.049 Y97.924 E4.95154
G1 X112.051 Y83.756 E5.42277
G1 X112.365 Y82.341 E5.47097
G1 X113.316 Y80.841 E5.53005
G1 X114.666 Y79.855 E5.58565
G1 X115.082 Y79.648 E5.6011
G1 X116.449 Y79.301 E5.64801
G1 X131.542 Y79.299 E6.15001
G1 X131.867 Y77.837 E6.19982
G1 X132.816 Y76.341 E6.25874
G1 X134.166 Y75.355 E6.31435
G1 X134.582 Y75.148 E6.3298
G1 X135.949 Y74.801 E6.37671
G1 X150.042 Y74.799 E6.84544
G1 X150.367 Y73.337 E6.89526
G1 X151.316 Y71.841 E6.95418
G1 X152.666 Y70.855 E7.00978
G1 X153.082 Y70.648 E7.02524
G1 X154.458 Y70.301 E7.07244
G1 X169.998 Y70.336 E7.5893
G1 X171.158 Y70.524 E7.62839
G1 X172.214 Y71.084 E7.66814
G1 X173.282 Y71.97 E7.7143
G1 X174.066 Y73.272 E7.76484
G1 X174.279 Y73.867 E7.78586
G1 X174.449 Y75.208 E7.83082
G1 X174.395 Y91.437 E8.3706
G1 X174.212 Y92.452 E8.40491
G1 X173.379 Y93.913 E8.46084
G1 X172.321 Y94.845 E8.50774
G1 X171.122 Y95.488 E8.55299
G1 X169.86 Y95.677 E8.59543
G1 X165.951 Y95.695 E8.72545
G1 X165.95 Y100.06 E8.87063
G1 X168.467 Y100.086 E8.95435
G1 X169.198 Y100.218 E8.97906
G1 X169.737 Y100.436 E8.99839
G1 X170.45 Y100.917 E9.027
G1 X171.116 Y101.534 E9.0572
G1 X171.671 Y102.51 E9.09454
G1 X171.95 Y103.605 E9.13212
G1 X171.914 Y109.467 E9.3271
G1 X171.782 Y110.198 E9.3518
G1 X171.563 Y110.739 E9.37122
G1 X171.043 Y111.5 E9.40187
G1 X170.466 Y112.115 E9.42992
G1 X169.496 Y112.667 E9.46704
G1 X168.396 Y112.95 E9.50482
G1 X165.95 Y112.95 E9.58617
G1 X165.95 Y137.06 E10.38807
G1 X168.467 Y137.086 E10.4718
G1 X169.198 Y137.218 E10.4965
G1 X169.737 Y137.436 E10.51584
G1 X170.45 Y137.917 E10.54445
G1 X171.116 Y138.534 E10.57464
G1 X171.671 Y139.51 E10.61199
G1 X171.95 Y140.605 E10.64957
G1 X171.914 Y146.467 E10.84454
G1 X171.782 Y147.198 E10.86925
G1 X171.563 Y147.739 E10.88866
G1 X171.043 Y148.5 E10.91932
G1 X170.466 Y149.115 E10.94737
G1 X169.496 Y149.667 E10.98449
G1 X168.396 Y149.95 E11.02226
G1 X165.946 Y149.95 E11.10375
G1 X165.944 Y151.277 E11.14789
G1 X165.693 Y152.412 E11.18655
G1 X164.994 Y153.775 E11.2375
G1 X163.838 Y154.835 E11.28966
G1 X162.738 Y155.46 E11.33174
G1 X161.502 Y155.664 E11.37341
G1 X146.461 Y155.698 E11.87367
G1 X146.193 Y156.912 E11.91502
G1 X145.494 Y158.275 E11.96597
G1 X144.338 Y159.335 E12.01814
G1 X143.238 Y159.96 E12.06022
G1 X142.002 Y160.164 E12.10188
G1 X127.961 Y160.198 E12.56889
G1 X127.693 Y161.412 E12.61024
G1 X126.994 Y162.775 E12.66119
G1 X125.838 Y163.835 E12.71335
G1 X124.738 Y164.46 E12.75543
G1 X123.502 Y164.664 E12.7971
G1 X107.986 Y164.694 E13.31316
G1 X106.838 Y164.44 E13.35227
G1 X105.477 Y163.746 E13.40308
G1 X104.25 Y162.409 E13.46344
G1 X103.668 Y160.942 E13.51593
G1 X103.56 Y160.444 E13.53288
G1 X103.551 Y160.201 E13.54097
G1 X89.485 Y160.194 E14.0088
G0 F6000 X89.532 Y159.794
G1 F1200 X88.472 Y159.559 E14.04492
G1 X87.223 Y158.923 E14.09153
G1 X86.094 Y157.693 E14.14706
G1 X85.559 Y156.357 E14.19493
G1 X85.451 Y155.859 E14.21188
G1 X85.45 Y155.301 E14.23044
G1 X71.031 Y155.294 E14.71002
G1 X69.972 Y155.059 E14.7461
G1 X68.717 Y154.424 E14.79288
G1 X67.592 Y153.185 E14.84854
G1 X67.101 Y151.995 E14.89135
G1 X66.951 Y151.363 E14.91296
G1 X66.95 Y149.544 E14.97346
G1 X64.104 Y149.52 E15.06812
G1 X63.413 Y149.395 E15.09148
G1 X62.953 Y149.209 E15.10798
G1 X62.274 Y148.751 E15.13522
G1 X61.703 Y148.216 E15.16125
G1 X61.204 Y147.339 E15.19481
G1 X60.95 Y146.344 E15.22896
G1 X60.98 Y140.604 E15.41988
G1 X61.105 Y139.913 E15.44323
G1 X61.291 Y139.453 E15.45974
G1 X61.749 Y138.774 E15.48698
G1 X62.285 Y138.203 E15.51302
G1 X63.158 Y137.706 E15.54644
G1 X64.153 Y137.45 E15.58061
G1 X66.95 Y137.45 E15.67364
G1 X66.95 Y112.543 E16.50205
G1 X64.104 Y112.52 E16.59671
G1 X63.413 Y112.395 E16.62006
G1 X62.953 Y112.209 E16.63657
G1 X62.274 Y111.751 E16.66381
G1 X61.703 Y111.216 E16.68983
G1 X61.204 Y110.339 E16.72339
G1 X60.95 Y109.344 E16.75755
G1 X60.98 Y103.604 E16.94846
G1 X61.105 Y102.913 E16.97182
G1 X61.291 Y102.453 E16.98832
G1 X61.749 Y101.774 E17.01556
G1 X62.285 Y101.203 E17.04161
G1 X63.158 Y100.706 E17.07502
G1 X64.153 Y100.45 E17.1092
G1 X66.95 Y100.45 E17.20222
G1 X66.951 Y97.801 E17.29033
G1 X67.241 Y96.495 E17.33483
G1 X68.114 Y95.119 E17.38903
G1 X69.345 Y94.213 E17.43986
G1 X69.722 Y94.025 E17.45387
G1 X71.008 Y93.701 E17.49798
G1 X87.524 Y93.743 E18.04731
G1 X88.562 Y93.922 E18.08234
G1 X89.465 Y94.399 E18.11631
G1 X90.474 Y95.234 E18.15987
G1 X91.254 Y96.531 E18.21021
G1 X91.389 Y96.991 E18.22615
G1 X91.532 Y97.958 E18.25867
G1 X91.54 Y98.324 E18.27084
G1 X112.449 Y98.324 E18.96628
G1 X112.451 Y83.802 E19.44928
G1 X112.741 Y82.495 E19.49381
G1 X113.614 Y81.119 E19.54801
G1 X114.845 Y80.213 E19.59885
G1 X115.222 Y80.025 E19.61286
G1 X116.5 Y79.701 E19.65671
G1 X131.951 Y79.699 E20.17061
G1 X131.951 Y79.307 E20.18365
G1 X132.243 Y77.991 E20.22849
G1 X133.114 Y76.619 E20.28254
G1 X134.345 Y75.713 E20.33337
G1 X134.722 Y75.525 E20.34739
G1 X136 Y75.201 E20.39124
G1 X150.451 Y75.199 E20.87188
G1 X150.451 Y74.807 E20.88492
G1 X150.743 Y73.491 E20.92975
G1 X151.614 Y72.119 E20.9838
G1 X152.845 Y71.213 E21.03464
G1 X153.222 Y71.025 E21.04865
G1 X154.508 Y70.701 E21.09276
G1 X169.934 Y70.731 E21.60583
G1 X171.031 Y70.909 E21.6428
G1 X171.989 Y71.417 E21.67886
G1 X172.974 Y72.234 E21.72143
G1 X173.702 Y73.443 E21.76837
G1 X173.888 Y73.962 E21.7867
G1 X174.049 Y75.207 E21.82846
G1 X174.001 Y91.366 E22.36591
G1 X173.83 Y92.313 E22.39792
G1 X173.064 Y93.657 E22.44937
G1 X172.092 Y94.514 E22.49247
G1 X170.994 Y95.102 E22.53389
G1 X169.801 Y95.281 E22.57402
G1 X165.551 Y95.296 E22.71537
G1 X165.55 Y100.457 E22.88703
G1 X168.396 Y100.48 E22.98169
G1 X169.087 Y100.605 E23.00505
G1 X169.547 Y100.791 E23.02155
G1 X170.226 Y101.249 E23.04879
G1 X170.797 Y101.784 E23.07482
G1 X171.296 Y102.661 E23.10838
G1 X171.55 Y103.656 E23.14253
G1 X171.52 Y109.396 E23.33345
G1 X171.395 Y110.087 E23.3568
G1 X171.209 Y110.547 E23.37331
G1 X170.751 Y111.226 E23.40055
G1 X170.215 Y111.797 E23.4266
G1 X169.342 Y112.294 E23.46001
G1 X168.347 Y112.55 E23.49418
G1 X165.55 Y112.55 E23.58721
G1 X165.55 Y137.457 E24.41562
G1 X168.396 Y137.48 E24.51028
G1 X169.087 Y137.605 E24.53363
G1 X169.547 Y137.791 E24.55014
G1 X170.226 Y138.249 E24.57738
G1 X170.797 Y138.784 E24.6034
G1 X171.296 Y139.661 E24.63696
G1 X171.55 Y140.656 E24.67112
G1 X171.52 Y146.396 E24.86204
G1 X171.395 Y147.087 E24.88539
G1 X171.209 Y147.547 E24.90189
G1 X170.751 Y148.226 E24.92914
G1 X170.215 Y148.797 E24.95518
G1 X169.342 Y149.294 E24.98859
G1 X168.347 Y149.55 E25.02277
G1 X165.546 Y149.55 E25.11593
G1 X165.544 Y151.231 E25.17184
G1 X165.313 Y152.275 E25.2074
G1 X164.67 Y153.529 E25.25427
G1 X163.601 Y154.51 E25.30253
G1 X162.604 Y155.076 E25.34066
G1 X161.437 Y155.269 E25.38
G1 X146.044 Y155.299 E25.89198
G1 X146.044 Y155.73 E25.90631
G1 X145.813 Y156.775 E25.94191
G1 X145.17 Y158.029 E25.98878
G1 X144.101 Y159.01 E26.03704
G1 X143.104 Y159.576 E26.07517
G1 X141.937 Y159.769 E26.11451
G1 X127.544 Y159.799 E26.59323
G1 X127.544 Y160.23 E26.60756
G1 X127.313 Y161.275 E26.64316
G1 X126.67 Y162.529 E26.69003
G1 X125.601 Y163.51 E26.73829
G1 X124.604 Y164.076 E26.77642
G1 X123.437 Y164.269 E26.81576
G1 X108.032 Y164.294 E27.32813
G1 X106.972 Y164.059 E27.36424
G1 X105.723 Y163.423 E27.41086
G1 X104.594 Y162.193 E27.46639
G1 X104.059 Y160.857 E27.51426
G1 X103.951 Y160.359 E27.53121
G1 X103.95 Y159.801 E27.54977
G1 X89.532 Y159.794 E28.02931
G0 F6000 X89.577 Y159.394
G1 F1200 X88.606 Y159.179 E28.06239
G1 X87.469 Y158.6 E28.10483
G1 X86.439 Y157.477 E28.15551
G1 X85.95 Y156.272 E28.19876
G1 X85.851 Y155.815 E28.21431
G1 X85.85 Y154.901 E28.24471
G1 X71.073 Y154.894 E28.7362
G1 X70.11 Y154.68 E28.76901
G1 X68.963 Y154.1 E28.81176
G1 X67.936 Y152.969 E28.86257
G1 X67.471 Y151.842 E28.90312
G1 X67.351 Y151.316 E28.92106
G1 X67.35 Y149.146 E28.99324
G1 X64.175 Y149.126 E29.09884
G1 X63.524 Y149.008 E29.12085
G1 X63.143 Y148.854 E29.13451
G1 X62.498 Y148.419 E29.16039
G1 X62.021 Y147.965 E29.18229
G1 X61.579 Y147.188 E29.21202
G1 X61.35 Y146.293 E29.24275
G1 X61.374 Y140.675 E29.42961
G1 X61.492 Y140.024 E29.45161
G1 X61.646 Y139.643 E29.46528
G1 X62.081 Y138.998 E29.49116
G1 X62.535 Y138.521 E29.51306
G1 X63.312 Y138.079 E29.54279
G1 X64.202 Y137.85 E29.57336
G1 X67.35 Y137.85 E29.67806
G1 X67.35 Y112.146 E30.53298
G1 X64.175 Y112.126 E30.63858
G1 X63.524 Y112.008 E30.66059
G1 X63.143 Y111.854 E30.67426
G1 X62.498 Y111.419 E30.70013
G1 X62.021 Y110.965 E30.72203
G1 X61.579 Y110.188 E30.75177
G1 X61.35 Y109.293 E30.78249
G1 X61.374 Y103.675 E30.96935
G1 X61.492 Y103.024 E30.99135
G1 X61.646 Y102.643 E31.00502
G1 X62.081 Y101.998 E31.0309
G1 X62.535 Y101.521 E31.0528
G1 X63.312 Y101.079 E31.08253
G1 X64.202 Y100.85 E31.1131
G1 X67.35 Y100.85 E31.2178
G1 X67.351 Y97.848 E31.31765
G1 X67.617 Y96.649 E31.3585
G1 X68.412 Y95.396 E31.40785
G1 X69.582 Y94.535 E31.45617
G1 X69.86 Y94.403 E31.4664
G1 X71.058 Y94.101 E31.5075
G1 X87.456 Y94.137 E32.0529
G1 X88.43 Y94.305 E32.08577
G1 X89.244 Y94.735 E32.11639
G1 X90.166 Y95.498 E32.15619
G1 X90.884 Y96.692 E32.20253
G1 X90.993 Y97.05 E32.21498
G1 X91.136 Y98.017 E32.24749
G1 X91.144 Y98.724 E32.27101
G1 X112.849 Y98.724 E32.99292
G1 X112.851 Y83.848 E33.4877
G1 X113.117 Y82.649 E33.52855
G1 X113.912 Y81.396 E33.5779
G1 X115.082 Y80.535 E33.62622
G1 X115.36 Y80.403 E33.63645
G1 X116.551 Y80.101 E33.67732
G1 X132.35 Y80.099 E34.2028
G1 X132.351 Y79.353 E34.22761
G1 X132.619 Y78.145 E34.26876
G1 X133.412 Y76.896 E34.31797
G1 X134.582 Y76.035 E34.36629
G1 X134.86 Y75.903 E34.37652
G1 X136.051 Y75.601 E34.41739
G1 X150.85 Y75.599 E34.90961
G1 X150.851 Y74.853 E34.93442
G1 X151.119 Y73.645 E34.97557
G1 X151.912 Y72.396 E35.02478
G1 X153.082 Y71.535 E35.0731
G1 X153.36 Y71.403 E35.08333
G1 X154.558 Y71.101 E35.12442
G1 X169.87 Y71.126 E35.6337
G1 X170.904 Y71.294 E35.66855
G1 X171.764 Y71.75 E35.70092
G1 X172.666 Y72.498 E35.7399
G1 X173.338 Y73.614 E35.78322
G1 X173.496 Y74.056 E35.79884
G1 X173.649 Y75.206 E35.83742
G1 X173.607 Y91.295 E36.37255
G1 X173.448 Y92.177 E36.40236
G1 X172.75 Y93.401 E36.44922
G1 X171.865 Y94.181 E36.48846
G1 X170.866 Y94.716 E36.52615
G1 X169.742 Y94.885 E36.56395
G1 X165.151 Y94.897 E36.71665
G1 X165.15 Y100.854 E36.91478
G1 X168.325 Y100.874 E37.02038
G1 X168.976 Y100.992 E37.04239
G1 X169.357 Y101.146 E37.05606
G1 X170.002 Y101.581 E37.08193
G1 X170.479 Y102.035 E37.10384
G1 X170.921 Y102.812 E37.13357
G1 X171.15 Y103.707 E37.16429
G1 X171.126 Y109.325 E37.35115
G1 X171.008 Y109.976 E37.37316
G1 X170.854 Y110.357 E37.38682
G1 X170.419 Y111.002 E37.4127
G1 X169.965 Y111.479 E37.4346
G1 X169.188 Y111.921 E37.46433
G1 X168.298 Y112.15 E37.4949
G1 X165.15 Y112.15 E37.5996
G1 X165.15 Y137.854 E38.45452
G1 X168.325 Y137.874 E38.56012
G1 X168.976 Y137.992 E38.58213
G1 X169.357 Y138.146 E38.5958
G1 X170.002 Y138.581 E38.62167
G1 X170.479 Y139.035 E38.64358
G1 X170.921 Y139.812 E38.67331
G1 X171.15 Y140.707 E38.70403
G1 X171.126 Y146.325 E38.89089
G1 X171.008 Y146.976 E38.9129
G1 X170.854 Y147.357 E38.92657
G1 X170.419 Y148.002 E38.95244
G1 X169.965 Y148.479 E38.97434
G1 X169.188 Y148.921 E39.00407
G1 X168.298 Y149.15 E39.03464
G1 X165.146 Y149.15 E39.13948
G1 X165.144 Y151.184 E39.20713
G1 X164.932 Y152.141 E39.23973
G1 X164.347 Y153.283 E39.28241
G1 X163.366 Y154.183 E39.32669
G1 X162.468 Y154.693 E39.36103
G1 X161.372 Y154.874 E39.39798
G1 X145.645 Y154.9 E39.92106
G1 X145.644 Y155.684 E39.94714
G1 X145.432 Y156.641 E39.97974
G1 X144.847 Y157.783 E40.02242
G1 X143.866 Y158.683 E40.0667
G1 X142.968 Y159.193 E40.10104
G1 X141.872 Y159.374 E40.13799
G1 X127.145 Y159.4 E40.62781
G1 X127.144 Y160.184 E40.65389
G1 X126.932 Y161.141 E40.68649
G1 X126.347 Y162.283 E40.72917
G1 X125.366 Y163.183 E40.77345
G1 X124.468 Y163.693 E40.8078
G1 X123.372 Y163.874 E40.84474
G1 X108.077 Y163.894 E41.35346
G1 X107.106 Y163.679 E41.38654
G1 X105.969 Y163.1 E41.42897
G1 X104.939 Y161.977 E41.47966
G1 X104.45 Y160.772 E41.52291
G1 X104.351 Y160.315 E41.53846
G1 X104.35 Y159.401 E41.56886
G1 X89.577 Y159.394 E42.06021
G0 F6000 X89.622 Y158.994
G1 F1200 X88.74 Y158.799 E42.09026
G1 X87.715 Y158.277 E42.12851
G1 X86.783 Y157.26 E42.1744
G1 X86.341 Y156.187 E42.21299
G1 X86.251 Y155.771 E42.22715
G1 X86.249 Y154.501 E42.26939
G1 X71.12 Y154.494 E42.77258
G1 X70.245 Y154.3 E42.80239
G1 X69.209 Y153.776 E42.84101
G1 X68.28 Y152.753 E42.88697
G1 X67.841 Y151.689 E42.92525
G1 X67.751 Y151.271 E42.93947
G1 X67.75 Y148.748 E43.02339
G1 X64.246 Y148.732 E43.13993
G1 X63.637 Y148.622 E43.16051
G1 X63.332 Y148.498 E43.17147
G1 X62.722 Y148.087 E43.19593
G1 X62.34 Y147.716 E43.21364
G1 X61.952 Y147.034 E43.23974
G1 X61.75 Y146.246 E43.26679
G1 X61.768 Y140.746 E43.44973
G1 X61.878 Y140.137 E43.47031
G1 X62.002 Y139.832 E43.48126
G1 X62.413 Y139.222 E43.50572
G1 X62.784 Y138.84 E43.52344
G1 X63.466 Y138.452 E43.54953
G1 X64.251 Y138.25 E43.57649
G1 X67.75 Y138.25 E43.69287
G1 X67.75 Y111.748 E44.57433
G1 X64.246 Y111.732 E44.69087
G1 X63.637 Y111.622 E44.71146
G1 X63.332 Y111.498 E44.72241
G1 X62.722 Y111.087 E44.74687
G1 X62.34 Y110.716 E44.76458
G1 X61.952 Y110.034 E44.79068
G1 X61.75 Y109.246 E44.81774
G1 X61.768 Y103.746 E45.00067
G1 X61.878 Y103.137 E45.02125
G1 X62.002 Y102.832 E45.0322
G1 X62.413 Y102.222 E45.05667
G1 X62.784 Y101.84 E45.07438
G1 X63.466 Y101.452 E45.10048
G1 X64.251 Y101.25 E45.12744
G1 X67.75 Y101.25 E45.24381
G1 X67.751 Y97.894 E45.35543
G1 X67.993 Y96.803 E45.3926
G1 X68.71 Y95.673 E45.43711
G1 X69.819 Y94.857 E45.48291
G1 X69.958 Y94.791 E45.48803
G1 X71.108 Y94.501 E45.52747
G1 X87.388 Y94.531 E46.06895
G1 X88.298 Y94.688 E46.09966
